X:1
T:Title
%%score { 1 | 2 }
L:1/8
M:3/4
K:F
V:1 treble nm="Grand Piano"
V:2 bass 
V:1
 z2 z2[Q:1/4=100] c2 | c3 A BA | [FA]2 [EG]2 [FA]2 | [EB]3 [CE] [CF][EG] |[M:2/4] A4 |[M:1/4] A2 | %6
[M:3/4] G3 A =Bd | [Ec]2 [EG]2 [EGc]2 | c3 =B AB |[M:2/4] [Ec]4 |[M:1/4] [Ec]2 | %11
[M:3/4] [Bd]3 [Ac] [GB][^FA] | [Ac]2 [GB]2 [DFB]2 | [CEB]3 [B,EG] [Fc][EB] |[M:2/4] [FA]4 | %15
[M:1/4] [Fc]2 |[M:3/4] [Af]3 c BA |[M:7/8] e2 d3 [Fd]2 |[M:3/4] [Fc]3 [FA] [EB][EG] |[M:2/4] F4 |] %20
V:2
 z2 z2 [F,A,F]2 | [F,A,F]3 [F,CF] [F,DF][F,CF] | [C,C]2 [C,C]2 [C,C]2 | %3
 [C,G,]3 [C,B,] [C,A,][C,C] |[M:2/4][K:treble] [F,CF]4 |[M:1/4] [F,CF]2 | %6
[M:3/4] [G,CE]3 [G,CE] [G,DF][G,=B,F] | [C,C]2 [C,C]2 C,2 | [G,DF]3 [G,DF] [G,CF][G,F] | %9
[M:2/4][K:bass] [C,G,]4 |[M:1/4] [C,G,]2 |[M:3/4] [C,E,]3 [C,F,] [C,G,][C,A,] | %12
 [C,^F,]2 [C,G,]2 C,2 | C,3 C, [C,A,][C,C] |[M:2/4] [F,C]4 |[M:1/4] [F,A,]2 | %16
[M:3/4] [F,C]3[K:treble] [A,CF] [G,CF][F,CF] |[M:7/8] [B,CF]2 [B,F]3[K:bass] [B,,B,]2 | %18
[M:3/4] [C,A,]3 [C,C] [C,G,][C,B,] |[M:2/4] [F,A,]4 |] %20

